src/pos-icons/close-circle.svg

<svg height="24" viewBox="0 0 24 24" width="24" xmlns="http://www.w3.org/2000/svg"><path d="m12 2c5.53 0 10 4.47 10 10s-4.47 10-10 10-10-4.47-10-10 4.47-10 10-10m3.59 5-3.59 3.59-3.59-3.59-1.41 1.41 3.59 3.59-3.59 3.59 1.41 1.41 3.59-3.59 3.59 3.59 1.41-1.41-3.59-3.59 3.59-3.59z"/></svg>

<?xml version="1.0" encoding="UTF-8"?><!DOCTYPE svg PUBLIC "-//W3C//DTD SVG 1.1//EN" "http://www.w3.org/Graphics/SVG/1.1/DTD/svg11.dtd"><svg xmlns="http://www.w3.org/2000/svg" xmlns:xlink="http://www.w3.org/1999/xlink" version="1.1" id="mdi-close-circle" width="24" height="24" viewBox="0 0 24 24"><path d="M12,2C17.53,2 22,6.47 22,12C22,17.53 17.53,22 12,22C6.47,22 2,17.53 2,12C2,6.47 6.47,2 12,2M15.59,7L12,10.59L8.41,7L7,8.41L10.59,12L7,15.59L8.41,17L12,13.41L15.59,17L17,15.59L13.41,12L17,8.41L15.59,7Z" /></svg>
